X: 1
T:Julie Wilson, B. Sc.  "(c) Bob Worrall Book 1"
M:C|
L:1/8
Q:80
C:Michael Grey
S:Hornpipe
K:HP
|: g3/4f/4|
{gef}e3/4d/4{g}B3/4e/4{g}d3/4B/4{g}A3/4{d}B/4|
{g}G3/4{d}G/4{e}G3/4A/4{g}B3/4A/4{g}B3/4c/4|  !
{gdedc}d{g}e3/4a/4g3/4e/4{g}d3/4B/4|
{g}e3/4d/4{g}B3/4G/4{gAd}Ag3/4f/4|
{gef}e3/4d/4{g}B3/4e/4{g}d3/4B/4{g}A3/4{d}B/4|  !
{g}G3/4{d}G/4{e}G3/4A/4{g}B3/4A/4{g}B3/4c/4|
{gdedc}d{g}e3/4f/4{a}g3/4e/4a3/4g/4|
{ef}e3/4d/4{g}B3/4d/4{gef}e:| |:  !
{g}e3/4f/4|
{a}g3/4e/4{A}e3/4a/4g3/4e/4{g}d3/4e/4|
{A}e3/4d/4{g}B3/4e/4{g}d3/4B/4{g}A3/4B/4|  !
{gdedc}d{g}e3/4A/4g3/4A/4a3/4g/4|
{a}e3/4d/4{g}B3/4G/4{gAd}A{g}e3/4f/4|1
{a}g3/4e/4{A}e3/4a/4g3/4e/4{g}d3/4e/4|  !
{A}e3/4d/4{g}B3/4e/4{g}d3/4B/4{g}A3/4B/4|
{gdedc}d{g}e3/4f/4{a}g3/4e/4a3/4g/4|
{ef}e3/4d/4{g}B3/4d/4{gef}e:| |:  !
{g}e3/4f/4|
{a}g3/4A/4{g}A3/4f/4{e}f3/4A/4{g}d3/4e/4|
{A}e3/4d/4{g}d3/4{G}d/4{g}B3/4A/4{g}G3/4B/4|  !
{gdedc}d{g}e3/4a/4g3/4e/4{g}d3/4B/4|
{g}e3/4d/4{g}B3/4G/4{gAd}A{g}e3/4f/4|
{a}g3/4A/4{g}A3/4f/4{e}f3/4A/4{g}d3/4e/4|  !
{A}e3/4d/4{g}d3/4{G}d/4{g}B3/4A/4{g}G3/4B/4|
{gdedc}d{g}e3/4f/4{a}g3/4e/4a3/4g/4|
{ef}e3/4d/4{g}B3/4d/4|1 {gef}e:|2  !
{gef}e2|] |:
{A}e3/4g/4{a}g3/4a/4{g}a3/4g/4{a}e3/4g/4|
{a}g3/4e/4{A}e3/4g/4{a}d3/4B/4{G}B3/4d/4|  !
{gdedc}d{g}e3/4A/4g3/4A/4a3/4g/4|
{a}e3/4d/4{g}B3/4G/4{gAd}A3/2e/2|1
{A}e3/4g/4{a}g3/4a/4{g}a3/4g/4{a}e3/4g/4|  !
{a}g3/4e/4{A}e3/4g/4{a}d3/4B/4{G}B3/4d/4|
{gdedc}d{g}e3/4f/4{a}g3/4e/4a3/4g/4|
{ef}e3/4d/4{g}B3/4d/4{gef}e:|  !
